src/_icons/am-cba.svg

---
version: "0.0.4"
---
<svg>
  <path d="M24 33.643a9.643 9.643 0 1 0 0 -19.286a9.643 9.643 0 0 0 0 19.286zm-22.5 -32.143h32.143v11.812h-32.143v-11.812zm11.812 12.857v32.143h-11.812v-32.143h11.812zm1.045 20.33h32.143v11.813h-32.143v-11.813zm32.143 -33.187v32.143h-11.812v-32.143h11.812z" />
</svg>

<svg>
  <path d="M24 33.643a9.643 9.643 0 1 0 0-19.286 9.643 9.643 0 0 0 0 19.286ZM1.5 1.5h32.143v11.812H1.5V1.5Zm11.812 12.857V46.5H1.5V14.357h11.812Zm1.045 20.33H46.5V46.5H14.357V34.687ZM46.5 1.5v32.143H34.688V1.5H46.5Z"/>
</svg>
